flaticon/household/livingroom-1.svg

<svg xmlns="http://www.w3.org/2000/svg" width="32" height="32" viewBox="0 0 24 24">
    <path d="M 19.601562 0 L 4.398438 0 L 4.398438 8 L 19.601562 8 Z M 18.800781 7.199219 L 5.199219 7.199219 L 5.199219 0.800781 L 18.800781 0.800781 Z M 18.800781 7.199219"/>
    <path d="M18.398438 1.199219L5.601562 1.199219 5.601562 6.800781 18.398438 6.800781zM17.601562 6L6.398438 6 6.398438 2 17.601562 2zM24 16.601562C24 15.386719 23.011719 14.398438 21.800781 14.398438 21.589844 14.398438 21.390625 14.429688 21.199219 14.484375L21.199219 13.484375C21.199219 11.339844 19.457031 9.601562 17.316406 9.601562L6.683594 9.601562C4.542969 9.601562 2.800781 11.339844 2.800781 13.484375L2.800781 14.484375C2.609375 14.429688 2.410156 14.398438 2.199219 14.398438.988281 14.398438 0 15.386719 0 16.601562 0 17.320312.359375 17.988281.941406 18.394531.851562 18.648438.800781 18.917969.800781 19.199219.800781 20.523438 1.875 21.601562 3.199219 21.601562L3.199219 22.800781 4 22.800781 4 23.199219C3.777344 23.199219 3.601562 23.378906 3.601562 23.601562 3.601562 23.820312 3.777344 24 4 24L4.800781 24C5.019531 24 5.199219 23.820312 5.199219 23.601562 5.199219 23.378906 5.019531 23.199219 4.800781 23.199219L4.800781 22.800781 5.601562 22.800781 5.601562 21.601562 18.398438 21.601562 18.398438 22.800781 19.199219 22.800781 19.199219 23.199219C18.980469 23.199219 18.800781 23.378906 18.800781 23.601562 18.800781 23.820312 18.980469 24 19.199219 24L20 24C20.222656 24 20.398438 23.820312 20.398438 23.601562 20.398438 23.378906 20.222656 23.199219 20 23.199219L20 22.800781 20.800781 22.800781 20.800781 21.601562C22.125 21.601562 23.199219 20.523438 23.199219 19.199219 23.199219 18.917969 23.148438 18.648438 23.058594 18.394531 23.640625 17.988281 24 17.320312 24 16.601562zM3.601562 14.902344L3.601562 13.484375C3.601562 11.78125 4.984375 10.398438 6.683594 10.398438L17.316406 10.398438C19.015625 10.398438 20.398438 11.78125 20.398438 13.484375L20.398438 14.902344C20.375 14.921875 20.355469 14.945312 20.332031 14.964844 20.300781 14.996094 20.269531 15.023438 20.238281 15.050781 20.210938 15.082031 20.183594 15.113281 20.15625 15.140625 20.132812 15.167969 20.109375 15.195312 20.089844 15.222656 20.0625 15.253906 20.039062 15.285156 20.015625 15.316406 19.996094 15.347656 19.976562 15.375 19.957031 15.40625 19.933594 15.4375 19.914062 15.472656 19.894531 15.503906 19.875 15.539062 19.859375 15.570312 19.839844 15.605469 19.824219 15.636719 19.808594 15.671875 19.792969 15.703125 19.777344 15.742188 19.761719 15.78125 19.746094 15.820312 19.734375 15.851562 19.722656 15.882812 19.710938 15.914062 19.695312 15.957031 19.683594 16.003906 19.671875 16.050781 19.664062 16.078125 19.65625 16.105469 19.652344 16.132812 19.640625 16.1875 19.632812 16.242188 19.625 16.292969 19.621094 16.316406 19.617188 16.339844 19.613281 16.363281 19.605469 16.441406 19.601562 16.519531 19.601562 16.601562 19.601562 16.667969 19.605469 16.734375 19.609375 16.800781L4.390625 16.800781C4.394531 16.734375 4.398438 16.667969 4.398438 16.601562 4.398438 16.519531 4.394531 16.441406 4.386719 16.363281 4.382812 16.339844 4.378906 16.316406 4.375 16.292969 4.367188 16.242188 4.359375 16.1875 4.347656 16.132812 4.34375 16.105469 4.335938 16.078125 4.328125 16.050781 4.316406 16.003906 4.304688 15.957031 4.289062 15.914062 4.277344 15.882812 4.265625 15.851562 4.253906 15.820312 4.238281 15.78125 4.222656 15.742188 4.207031 15.703125 4.191406 15.667969 4.175781 15.636719 4.160156 15.605469 4.140625 15.570312 4.125 15.539062 4.105469 15.503906 4.085938 15.46875 4.066406 15.4375 4.046875 15.40625 4.027344 15.375 4.003906 15.347656 3.984375 15.316406 3.960938 15.285156 3.9375 15.253906 3.910156 15.222656 3.890625 15.195312 3.867188 15.167969 3.84375 15.140625 3.816406 15.113281 3.789062 15.082031 3.761719 15.050781 3.730469 15.023438 3.699219 14.992188 3.667969 14.964844 3.644531 14.945312 3.625 14.921875 3.601562 14.902344zM.800781 16.601562C.800781 15.828125 1.429688 15.199219 2.199219 15.199219 2.488281 15.199219 2.757812 15.289062 2.980469 15.4375 3.066406 15.496094 3.144531 15.566406 3.214844 15.640625 3.238281 15.664062 3.257812 15.691406 3.277344 15.71875 3.324219 15.773438 3.363281 15.832031 3.402344 15.894531 3.417969 15.925781 3.4375 15.957031 3.453125 15.988281 3.484375 16.054688 3.511719 16.121094 3.53125 16.191406 3.542969 16.222656 3.554688 16.253906 3.558594 16.285156 3.585938 16.386719 3.601562 16.492188 3.601562 16.601562 3.601562 16.664062 3.59375 16.730469 3.582031 16.800781L3.199219 16.800781C3.109375 16.800781 3.023438 16.804688 2.9375 16.816406 2.925781 16.816406 2.914062 16.820312 2.902344 16.820312 2.824219 16.832031 2.746094 16.84375 2.667969 16.859375 2.667969 16.863281 2.664062 16.863281 2.660156 16.863281 2.128906 16.984375 1.664062 17.285156 1.332031 17.695312 1.003906 17.433594.800781 17.03125.800781 16.601562zM4.800781 22L4 22 4 21.601562 4.800781 21.601562zM20 22L19.199219 22 19.199219 21.601562 20 21.601562zM20.800781 20.800781L3.199219 20.800781C2.316406 20.800781 1.601562 20.082031 1.601562 19.199219 1.601562 18.980469 1.644531 18.773438 1.722656 18.582031L1.808594 18.433594C1.953125 18.175781 2.15625 17.96875 2.394531 17.828125 2.402344 17.824219 2.40625 17.820312 2.414062 17.816406 2.496094 17.765625 2.585938 17.730469 2.675781 17.695312 2.722656 17.679688 2.773438 17.660156 2.828125 17.648438 2.859375 17.640625 2.894531 17.632812 2.925781 17.628906 3.015625 17.613281 3.105469 17.601562 3.199219 17.601562L20.800781 17.601562C20.894531 17.601562 20.984375 17.613281 21.074219 17.628906 21.109375 17.632812 21.140625 17.640625 21.171875 17.648438 21.226562 17.660156 21.273438 17.679688 21.324219 17.695312 21.414062 17.726562 21.503906 17.765625 21.585938 17.816406 21.59375 17.820312 21.597656 17.820312 21.605469 17.824219 21.84375 17.96875 22.046875 18.175781 22.191406 18.429688L22.277344 18.582031C22.355469 18.773438 22.398438 18.980469 22.398438 19.199219 22.398438 20.082031 21.683594 20.800781 20.800781 20.800781zM22.664062 17.695312C22.335938 17.285156 21.871094 16.984375 21.339844 16.863281 21.335938 16.863281 21.332031 16.863281 21.328125 16.859375 21.253906 16.84375 21.175781 16.828125 21.097656 16.820312 21.085938 16.820312 21.074219 16.816406 21.0625 16.816406 20.976562 16.804688 20.890625 16.800781 20.800781 16.800781L20.417969 16.800781C20.40625 16.730469 20.398438 16.664062 20.398438 16.601562 20.398438 16.492188 20.414062 16.386719 20.4375 16.285156 20.445312 16.253906 20.457031 16.222656 20.46875 16.195312 20.488281 16.125 20.515625 16.054688 20.546875 15.988281 20.5625 15.957031 20.578125 15.925781 20.597656 15.894531 20.636719 15.832031 20.675781 15.773438 20.722656 15.71875 20.742188 15.691406 20.761719 15.664062 20.785156 15.640625 20.855469 15.566406 20.933594 15.496094 21.023438 15.4375 21.242188 15.289062 21.511719 15.199219 21.800781 15.199219 22.570312 15.199219 23.199219 15.828125 23.199219 16.601562 23.199219 17.03125 22.996094 17.433594 22.664062 17.695312zM22.664062 17.695312"/>
    <path d="M7.71875 14.683594C7.796875 14.761719 7.898438 14.800781 8 14.800781 8.101562 14.800781 8.203125 14.761719 8.28125 14.683594 8.4375 14.527344 8.4375 14.273438 8.28125 14.117188L7.765625 13.601562 8.28125 13.082031C8.4375 12.925781 8.4375 12.671875 8.28125 12.515625 8.125 12.359375 7.875 12.359375 7.71875 12.515625L6.917969 13.316406C6.839844 13.394531 6.800781 13.496094 6.800781 13.601562 6.800781 13.703125 6.839844 13.804688 6.917969 13.882812zM5.316406 14.683594C5.394531 14.761719 5.496094 14.800781 5.601562 14.800781 5.703125 14.800781 5.804688 14.761719 5.882812 14.683594L6.683594 13.882812C6.761719 13.804688 6.800781 13.703125 6.800781 13.601562 6.800781 13.496094 6.761719 13.394531 6.683594 13.316406L5.882812 12.515625C5.726562 12.359375 5.472656 12.359375 5.316406 12.515625 5.160156 12.671875 5.160156 12.925781 5.316406 13.082031L5.835938 13.601562 5.316406 14.117188C5.160156 14.273438 5.160156 14.527344 5.316406 14.683594zM12.917969 15.484375C12.996094 15.5625 13.097656 15.601562 13.199219 15.601562 13.300781 15.601562 13.40625 15.5625 13.484375 15.484375 13.640625 15.328125 13.640625 15.074219 13.484375 14.917969L12.964844 14.398438 13.484375 13.882812C13.640625 13.726562 13.640625 13.472656 13.484375 13.316406 13.328125 13.160156 13.074219 13.160156 12.917969 13.316406L12.117188 14.117188C12.039062 14.195312 12 14.296875 12 14.398438 12 14.503906 12.039062 14.605469 12.117188 14.683594zM10.515625 15.484375C10.59375 15.5625 10.699219 15.601562 10.800781 15.601562 10.902344 15.601562 11.003906 15.5625 11.082031 15.484375L11.882812 14.683594C11.960938 14.605469 12 14.503906 12 14.398438 12 14.296875 11.960938 14.195312 11.882812 14.117188L11.082031 13.316406C10.925781 13.160156 10.671875 13.160156 10.515625 13.316406 10.359375 13.472656 10.359375 13.726562 10.515625 13.882812L11.035156 14.398438 10.515625 14.917969C10.359375 15.074219 10.359375 15.328125 10.515625 15.484375zM18.117188 14.683594C18.195312 14.761719 18.296875 14.800781 18.398438 14.800781 18.503906 14.800781 18.605469 14.761719 18.683594 14.683594 18.839844 14.527344 18.839844 14.273438 18.683594 14.117188L18.164062 13.601562 18.683594 13.082031C18.839844 12.925781 18.839844 12.671875 18.683594 12.515625 18.527344 12.359375 18.273438 12.359375 18.117188 12.515625L17.316406 13.316406C17.238281 13.394531 17.199219 13.496094 17.199219 13.601562 17.199219 13.703125 17.238281 13.804688 17.316406 13.882812zM15.71875 14.683594C15.796875 14.761719 15.898438 14.800781 16 14.800781 16.101562 14.800781 16.203125 14.761719 16.28125 14.683594L17.082031 13.882812C17.160156 13.804688 17.199219 13.703125 17.199219 13.601562 17.199219 13.496094 17.160156 13.394531 17.082031 13.316406L16.28125 12.515625C16.125 12.359375 15.875 12.359375 15.71875 12.515625 15.5625 12.671875 15.5625 12.925781 15.71875 13.082031L16.234375 13.601562 15.71875 14.117188C15.5625 14.273438 15.5625 14.527344 15.71875 14.683594zM7.199219 5.199219C7.300781 5.199219 7.40625 5.160156 7.484375 5.082031L8.398438 4.164062 9.316406 5.082031C9.394531 5.160156 9.496094 5.199219 9.601562 5.199219 9.703125 5.199219 9.804688 5.160156 9.882812 5.082031L10.800781 4.164062 11.71875 5.082031C11.796875 5.160156 11.898438 5.199219 12 5.199219 12.101562 5.199219 12.203125 5.160156 12.28125 5.082031L13.199219 4.164062 14.117188 5.082031C14.195312 5.160156 14.296875 5.199219 14.398438 5.199219 14.503906 5.199219 14.605469 5.160156 14.683594 5.082031L15.601562 4.164062 16.515625 5.082031C16.59375 5.160156 16.699219 5.199219 16.800781 5.199219 16.902344 5.199219 17.003906 5.160156 17.082031 5.082031 17.238281 4.925781 17.238281 4.671875 17.082031 4.515625L15.882812 3.316406C15.726562 3.160156 15.472656 3.160156 15.316406 3.316406L14.398438 4.234375 13.484375 3.316406C13.328125 3.160156 13.074219 3.160156 12.917969 3.316406L12 4.234375 11.082031 3.316406C10.925781 3.160156 10.671875 3.160156 10.515625 3.316406L9.601562 4.234375 8.683594 3.316406C8.527344 3.160156 8.273438 3.160156 8.117188 3.316406L6.917969 4.515625C6.761719 4.671875 6.761719 4.925781 6.917969 5.082031 6.996094 5.160156 7.097656 5.199219 7.199219 5.199219zM7.199219 5.199219"/>
</svg>

<svg xmlns="http://www.w3.org/2000/svg" width="32" height="32" viewBox="0 0 24 24">
    <path d="M19.602 0H4.398v8h15.204zM18.8 7.2H5.199V.8h13.602zm0 0"/>
    <path d="M18.398 1.2H5.602v5.6h12.796zM17.602 6H6.398V2h11.204zm0 0M24 16.602a2.205 2.205 0 0 0-2.2-2.204c-.21 0-.41.032-.6.086v-1a3.885 3.885 0 0 0-3.884-3.882H6.684A3.885 3.885 0 0 0 2.8 13.484v1a2.173 2.173 0 0 0-.602-.086C.99 14.398 0 15.387 0 16.602c0 .718.36 1.386.941 1.793A2.402 2.402 0 0 0 3.2 21.602V22.8H4v.398a.398.398 0 0 0-.398.403c0 .218.175.398.398.398h.8a.4.4 0 0 0 0-.8v-.4h.802v-1.198h12.796V22.8h.801v.398a.401.401 0 0 0 0 .801H20c.223 0 .398-.18.398-.398a.398.398 0 0 0-.398-.403v-.398h.8v-1.2a2.402 2.402 0 0 0 2.259-3.206A2.193 2.193 0 0 0 24 16.602zm-20.398-1.7v-1.418a3.087 3.087 0 0 1 3.082-3.086h10.632c1.7 0 3.082 1.383 3.082 3.086v1.418c-.023.02-.043.043-.066.063a1.872 1.872 0 0 1-.094.086 1.873 1.873 0 0 1-.082.09 1.223 1.223 0 0 0-.066.082c-.027.03-.05.062-.074.093-.02.032-.04.059-.059.09-.023.031-.043.067-.062.098l-.055.101c-.016.032-.031.067-.047.098l-.047.117-.035.094c-.016.043-.027.09-.04.137a.624.624 0 0 0-.019.082c-.011.055-.02.11-.027.16l-.012.07a2.374 2.374 0 0 0-.011.239c0 .066.003.132.007.199H4.391a2.374 2.374 0 0 0-.004-.438l-.012-.07c-.008-.05-.016-.105-.027-.16a.624.624 0 0 0-.02-.082c-.012-.047-.023-.094-.039-.137l-.035-.094-.047-.117-.047-.098-.055-.101-.058-.098c-.02-.031-.043-.058-.063-.09a1.556 1.556 0 0 0-.074-.093 1.223 1.223 0 0 0-.066-.082 1.873 1.873 0 0 1-.082-.09c-.032-.028-.063-.059-.094-.086-.023-.02-.043-.043-.066-.063zM.8 16.602c0-.774.629-1.403 1.398-1.403.29 0 .559.09.781.239.086.058.165.128.235.203.023.023.043.05.062.078.047.054.086.113.125.176l.051.093c.031.067.059.133.078.203.012.032.024.063.028.094.027.102.043.207.043.317 0 .062-.008.128-.02.199h-.383c-.09 0-.176.004-.261.015-.012 0-.024.004-.036.004-.078.012-.156.024-.234.04 0 .003-.004.003-.008.003a2.4 2.4 0 0 0-1.328.832 1.406 1.406 0 0 1-.531-1.093zM4.8 22H4v-.398h.8zM20 22h-.8v-.398h.8zm.8-1.2H3.2a1.6 1.6 0 0 1-1.598-1.6c0-.22.043-.427.12-.618l.087-.148c.144-.258.347-.465.586-.606.007-.004.011-.008.02-.012.081-.05.17-.086.26-.12.048-.016.098-.036.153-.048a1.582 1.582 0 0 1 .371-.047h17.602a1.582 1.582 0 0 1 .37.047c.056.012.102.032.153.047.09.032.18.07.262.121l.02.008c.238.145.44.352.585.606l.086.152c.078.191.121.398.121.617a1.6 1.6 0 0 1-1.597 1.602zm1.864-3.105a2.377 2.377 0 0 0-1.324-.832c-.004 0-.008 0-.012-.004a2.181 2.181 0 0 0-.23-.039c-.012 0-.024-.004-.035-.004a1.923 1.923 0 0 0-.262-.015h-.383a1.226 1.226 0 0 1-.02-.2c0-.109.016-.214.04-.316a.607.607 0 0 1 .03-.09c.02-.07.048-.14.079-.207a1.426 1.426 0 0 1 .176-.27c.02-.027.039-.054.062-.077a1.386 1.386 0 0 1 1.016-.441c.77 0 1.398.628 1.398 1.402 0 .43-.203.832-.535 1.093zm0 0"/>
    <path d="M7.719 14.684a.396.396 0 0 0 .562 0 .4.4 0 0 0 0-.567l-.515-.515.515-.52a.4.4 0 0 0 0-.566.396.396 0 0 0-.562 0l-.801.8a.399.399 0 0 0 0 .567zm0 0"/>
    <path d="M5.316 14.684a.399.399 0 0 0 .567 0l.8-.801a.399.399 0 0 0 0-.566l-.8-.801a.4.4 0 0 0-.567.566l.52.52-.52.515a.4.4 0 0 0 0 .567zm0 0M12.918 15.484c.078.079.18.118.281.118a.4.4 0 0 0 .285-.684l-.52-.52.52-.515a.4.4 0 0 0-.566-.567l-.8.801a.399.399 0 0 0 0 .566zm0 0"/>
    <path d="M10.516 15.484a.405.405 0 0 0 .285.118c.101 0 .203-.04.281-.118l.8-.8a.399.399 0 0 0 0-.567l-.8-.8a.4.4 0 0 0-.566.566l.52.515-.52.52a.4.4 0 0 0 0 .566zm0 0M18.117 14.684a.399.399 0 0 0 .566 0 .4.4 0 0 0 0-.567l-.519-.515.52-.52a.4.4 0 0 0-.567-.566l-.8.8a.399.399 0 0 0 0 .567zm0 0"/>
    <path d="M15.719 14.684a.396.396 0 0 0 .562 0l.801-.801a.399.399 0 0 0 0-.566l-.8-.801a.396.396 0 0 0-.563 0 .4.4 0 0 0 0 .566l.515.52-.515.515a.4.4 0 0 0 0 .567zm0 0M7.2 5.2c.1 0 .206-.04.284-.118l.914-.918.918.918a.399.399 0 0 0 .567 0l.918-.918.918.918a.396.396 0 0 0 .562 0l.918-.918.918.918a.399.399 0 0 0 .566 0l.919-.918.914.918a.405.405 0 0 0 .285.117.4.4 0 0 0 .281-.684l-1.2-1.199a.4.4 0 0 0-.566 0l-.918.918-.914-.918a.4.4 0 0 0-.566 0L12 4.234l-.918-.918a.4.4 0 0 0-.566 0l-.914.918-.918-.918a.4.4 0 0 0-.567 0l-1.199 1.2a.4.4 0 0 0 .281.683zm0 0"/>
</svg>
